X:1025
T:Jessee the Flour of Dunblane
A:Wyresdale, Lancashire
B:E and J Winder, 1835-41
L:1/8
M:6/8
O:England
Z:Richard Robinson 
%%TUNEURL: http://www.leeds.ac.uk/music/Info/RRTuneBk/gettune/00001113.html
%%ID:00001113
K:C
c/d/ | \
e>fe d>ge | c>Bc e>Bc/A/ | G>AF E<Gc | c>de d2c/d/ |
e>fe d>ge | c>Bc dAG E/G/c2 | dAB c2 ::
c/d/ | \
e>cd e>ag | g>ec d/e/cB/c/ | d>Bc d>ge | dB>G AGA/B/ |
c>ed ecd  | e>ge f>de | f>ga gec | dAB | c2 ::
